X: 15206
T: Gin Thou Wert Mine Awn Thing
R: reel
M: 4/4
K: Gmajor
D3 G G3 B|A2 GF E4|GF ED GA B2|cB AG Bc d2|D3 G G3 B|
A2 GF E2 Bc|d2 ed cB AG|G3 A B2 z:|:d2 D2 D3 B|A2 GF E3 F|
D2 d2 d3 e|de dc B2 BB|cdec BcdB|ABcA D3 e|dedB cBAG|
G3 A B4:|

